svgs/sharp-regular/cassette-vhs.svg

<svg xmlns="http://www.w3.org/2000/svg" viewBox="0 0 576 512"><!--! Font Awesome Pro 6.6.0 by @fontawesome - https://fontawesome.com License - https://fontawesome.com/license (Commercial License) Copyright 2024 Fonticons, Inc. --><path d="M48 432l0-272 480 0 0 272L48 432zM48 32L0 32 0 80 0 432l0 48 48 0 480 0 48 0 0-48 0-352 0-48-48 0L48 32zM352 336l-128 0 0-80 128 0 0 80zM144 296c0-19.4 13.7-35.5 32-39.2l0 78.4c-18.3-3.7-32-19.8-32-39.2zm288 0c0 19.4-13.7 35.5-32 39.2l0-78.4c18.3 3.7 32 19.8 32 39.2zM96 296c0 48.6 39.4 88 88 88l208 0c48.6 0 88-39.4 88-88s-39.4-88-88-88l-208 0c-48.6 0-88 39.4-88 88z"/></svg>

<svg xmlns="http://www.w3.org/2000/svg" viewBox="0 0 576 512"><!--! Font Awesome Pro 6.4.0 by @fontawesome - https://fontawesome.com License - https://fontawesome.com/license (Commercial License) Copyright 2023 Fonticons, Inc. --><path d="M48 432V160H528V432H48zM48 32H0V80 432v48H48 528h48V432 80 32H528 48zM352 336H224V256H352v80zM144 296c0-19.4 13.7-35.5 32-39.2v78.4c-18.3-3.7-32-19.8-32-39.2zm288 0c0 19.4-13.7 35.5-32 39.2V256.8c18.3 3.7 32 19.8 32 39.2zM96 296c0 48.6 39.4 88 88 88H392c48.6 0 88-39.4 88-88s-39.4-88-88-88H184c-48.6 0-88 39.4-88 88z"/></svg>
